configs/network-icons/kusama.svg

<svg width="30" height="30" viewBox="0 0 30 30" fill="none" xmlns="http://www.w3.org/2000/svg">
<g clip-path="url(#clip0_16828_52450)">
<path d="M14.9985 0C23.2807 0 29.997 6.71633 29.997 14.9985C29.997 23.2807 23.2807 29.997 14.9985 29.997C6.71633 29.997 0 23.2807 0 14.9985C0 6.71633 6.71633 0 14.9985 0Z" fill="#CE206F"/>
<path d="M24.6517 8.42317C24.2317 8.05121 23.7637 7.76924 23.2058 7.67625C22.5069 7.58326 21.8049 8.04821 21.34 8.37518C20.875 8.70214 19.9391 9.54206 19.5672 9.86903C19.1952 10.196 18.2593 10.382 16.7204 11.3149C15.1816 12.2478 9.2032 16.0784 9.2032 16.0784H10.742L3.78874 19.672H4.48767L3.50977 20.419C4.07071 20.56 4.62865 20.467 5.1446 20.185V20.419C5.1446 20.419 13.4058 17.1523 14.9926 17.9922L14.0117 18.2712C14.1047 18.2712 15.6466 18.3642 15.6466 18.3642C15.7395 19.0181 16.1145 19.6241 16.6724 19.951C17.6054 20.557 17.6534 20.9319 17.6534 20.9319C17.6534 20.9319 17.1854 21.1179 17.1854 21.3999C18.0733 21.1209 19.0062 21.1209 19.8461 21.3999C19.8461 21.3999 19.7981 21.1209 19.1472 20.9319C18.4933 20.6529 17.9323 20.233 17.5124 19.6241C17.1404 19.1111 16.9994 18.4572 17.2334 17.8512C17.4674 17.2453 18.2593 16.9183 19.8941 16.0784C21.8079 15.0975 22.2729 14.3506 22.5069 13.7446C22.7408 13.1387 23.2058 12.0168 23.3948 11.4589C23.5808 10.9459 23.9077 10.526 24.3277 10.151C24.8406 9.87203 25.4016 9.63805 25.9145 9.45207C26.0045 9.49706 24.9786 8.65715 24.6517 8.42317Z" fill="white"/>
</g>
<defs>
<clipPath id="clip0_16828_52450">
<rect width="30" height="30" fill="white"/>
</clipPath>
</defs>
</svg>

<svg xmlns="http://www.w3.org/2000/svg" fill="none" viewBox="0 0 30 30">
  <g clip-path="url(#kusama_svg__a)">
    <path fill="#CE206F" d="M14.998 0c8.283 0 14.999 6.716 14.999 14.998 0 8.283-6.716 14.999-14.998 14.999C6.716 29.997 0 23.281 0 14.999 0 6.716 6.716 0 14.998 0Z"/>
    <path fill="#fff" d="M24.652 8.423c-.42-.372-.888-.654-1.446-.747-.7-.093-1.401.372-1.866.7-.465.326-1.4 1.166-1.773 1.493-.372.327-1.308.513-2.847 1.446-1.538.933-7.517 4.763-7.517 4.763h1.539l-6.953 3.594h.699l-.978.747c.56.141 1.119.048 1.635-.234v.234s8.26-3.267 9.848-2.427l-.981.28c.093 0 1.635.092 1.635.092.092.654.467 1.26 1.025 1.587.933.606.981.98.981.98s-.468.187-.468.469a4.333 4.333 0 0 1 2.661 0s-.048-.28-.699-.468c-.654-.28-1.215-.699-1.635-1.308-.372-.513-.513-1.167-.279-1.773.234-.606 1.026-.933 2.661-1.773 1.914-.98 2.379-1.727 2.613-2.333.234-.606.699-1.728.888-2.286.186-.513.513-.933.933-1.308a11.789 11.789 0 0 1 1.587-.699c.09.045-.936-.795-1.263-1.029Z"/>
  </g>
  <defs>
    <clipPath id="kusama_svg__a">
      <path fill="#fff" d="M0 0h30v30H0z"/>
    </clipPath>
  </defs>
</svg>
